Dominus_Funeral/22/apps/preferences-desktop-locale.svg

<svg xmlns="http://www.w3.org/2000/svg" width="24" height="24"><defs><linearGradient id="b"><stop offset="0"/><stop offset="1" stop-opacity="0"/></linearGradient><linearGradient id="a"><stop offset="0"/><stop offset="1" stop-opacity="0"/></linearGradient></defs><path d="M7.88 1v15.13H20.25s2.75 0 2.75-2.75V3.74S23 1 20.25 1zm6.27 2.75h2.58l3 9.63h-2.27l-.6-2.29h-2.92l-.6 2.29h-2.2zm1.2 1.62c-.23 1.02-.46 2.18-.72 3.15l-.26.85h2.06l-.22-.85c-.26-.97-.57-2.14-.81-3.15zm-11.6 2.5C1 7.88 1 10.63 1 10.63v9.63C1 22.95 3.75 23 3.75 23H16.13v-5.5H12.6c-.01.2-.04.41-.04.6h.6v.68h-.7c-.1.96-.49 1.47-1.15 1.47-.16 0-.42-.03-.73-.1l-.12-.68c.36.06.66.1.85.1.2 0 .3-.28.35-.8H8.44c.05-.39.08-.84.12-1.27h-.95c-.31.9-.71 1.84-1.23 2.71l-.7-.56c.45-.7.8-1.42 1.12-2.15h-.3V14.19c-.03-.02-.06-.06-.08-.1l.08-.07v-2.46l-.08-.08.08-.08V7.87zm.12 3.75h2.2v6.57h-.72v-.73H4.6v1.07h-.73zm.73.72v4.43h.75v-4.43zm4.77 5.16l-.08.6h2.45c.03-.22.03-.4.04-.6h-.65l-.28.37c-.14-.14-.3-.23-.45-.37z" fill="#1a1a1a"/></svg>

<?xml version="1.0" encoding="UTF-8" standalone="no"?>
<svg
   xmlns:dc="http://purl.org/dc/elements/1.1/"
   xmlns:cc="http://creativecommons.org/ns#"
   xmlns:rdf="http://www.w3.org/1999/02/22-rdf-syntax-ns#"
   xmlns:svg="http://www.w3.org/2000/svg"
   xmlns="http://www.w3.org/2000/svg"
   xmlns:sodipodi="http://sodipodi.sourceforge.net/DTD/sodipodi-0.dtd"
   xmlns:inkscape="http://www.inkscape.org/namespaces/inkscape"
   width="24"
   height="24"
   version="1.1"
   id="svg16"
   sodipodi:docname="preferences-desktop-locale.svg"
   inkscape:version="0.92.4 (5da689c313, 2019-01-14)">
  <metadata
     id="metadata20">
    <rdf:RDF>
      <cc:Work
         rdf:about="">
        <dc:format>image/svg+xml</dc:format>
        <dc:type
           rdf:resource="http://purl.org/dc/dcmitype/StillImage" />
        <dc:title></dc:title>
      </cc:Work>
    </rdf:RDF>
  </metadata>
  <sodipodi:namedview
     pagecolor="#ffffff"
     bordercolor="#666666"
     borderopacity="1"
     objecttolerance="10"
     gridtolerance="10"
     guidetolerance="10"
     inkscape:pageopacity="0"
     inkscape:pageshadow="2"
     inkscape:window-width="1138"
     inkscape:window-height="480"
     id="namedview18"
     showgrid="false"
     inkscape:zoom="9.8333333"
     inkscape:cx="1.0677966"
     inkscape:cy="12"
     inkscape:window-x="0"
     inkscape:window-y="25"
     inkscape:window-maximized="0"
     inkscape:current-layer="svg16" />
  <defs
     id="defs12">
    <linearGradient
       id="b">
      <stop
         offset="0"
         id="stop2" />
      <stop
         offset="1"
         stop-opacity="0"
         id="stop4" />
    </linearGradient>
    <linearGradient
       id="a">
      <stop
         offset="0"
         id="stop7" />
      <stop
         offset="1"
         stop-opacity="0"
         id="stop9" />
    </linearGradient>
  </defs>
  <path
     d="m 7.88,1 v 15.13 h 12.37 c 0,0 2.75,0 2.75,-2.75 V 3.74 C 23,3.74 23,1 20.25,1 Z m 6.27,2.75 h 2.58 l 3,9.63 h -2.27 l -0.6,-2.29 h -2.92 l -0.6,2.29 h -2.2 z m 1.2,1.62 c -0.23,1.02 -0.46,2.18 -0.72,3.15 l -0.26,0.85 h 2.06 L 16.21,8.52 C 15.95,7.55 15.64,6.38 15.4,5.37 Z M 3.75,7.87 C 1,7.88 1,10.63 1,10.63 v 9.63 C 1,22.95 3.75,23 3.75,23 H 16.13 V 17.5 H 12.6 c -0.01,0.2 -0.04,0.41 -0.04,0.6 h 0.6 v 0.68 h -0.7 c -0.1,0.96 -0.49,1.47 -1.15,1.47 -0.16,0 -0.42,-0.03 -0.73,-0.1 l -0.12,-0.68 c 0.36,0.06 0.66,0.1 0.85,0.1 0.2,0 0.3,-0.28 0.35,-0.8 H 8.44 C 8.49,18.38 8.52,17.93 8.56,17.5 H 7.61 C 7.3,18.4 6.9,19.34 6.38,20.21 L 5.68,19.65 C 6.13,18.95 6.48,18.23 6.8,17.5 H 6.5 V 14.19 C 6.47,14.17 6.44,14.13 6.42,14.09 L 6.5,14.02 V 11.56 L 6.42,11.48 6.5,11.4 V 7.87 Z m 0.12,3.75 h 2.2 v 6.57 H 5.35 V 17.46 H 4.6 v 1.07 H 3.87 Z m 0.73,0.72 v 4.43 h 0.75 v -4.43 z m 4.77,5.16 -0.08,0.6 h 2.45 c 0.03,-0.22 0.03,-0.4 0.04,-0.6 h -0.65 l -0.28,0.37 C 10.71,17.73 10.55,17.64 10.4,17.5 Z"
     id="path14"
     inkscape:connector-curvature="0"
     style="fill:#1a1a1a" />
</svg>
